X: 1
T: Potatoes and Herring
T: Bunt\`ata's Sgadan
C: Allan MacDonald
R: polka
Z: 2014 John Chambers <jc:trillian.mit.edu>
S: page from Concord Slow Scottish Session collection
M: C|
L: 1/8
K: A
B | "A"A2 c{B}A ceae | "D"f2ae "E7"cBB[ae] | "A"A2 c{B}A ceae | "D"f2"E7"ae "A"cAA :|
e | "F#m"f2cf efce | f2ae "E"cBBe | "F#m"f2cf efce | "D"f2"E7"ae "A"cAA ||
e | "F#m"f2cf efce | f2ae "E"cBB[ae] | "A"A2c{B}A ceae | "D"f2"E7"ae "A"cAA |]
